X: 16560
T: Hamilton House
R: jig
M: 6/8
K: Gmajor
|:g3 dBd|c2 B A2 c|BdB A2 G|F3/2E/F D3|
g3 dBd|c2 B Ace|dcB AGF|G3 G3:|
|:D3 EDE|DGB d2 d|c2 B A2 G|FEF D2 D|
E2 c cdc|dBG G2 g|dBG cAF|G3 G3:|
|:dBd ege|dBd c2A|dBG EFG|ABG FED|
dBd ege|dBd c2 A|dBG DEF|G3 G3:|

